X:1
T:Joyful News to All Mankind
T:Joyful News to All Mankind
T:Charles Coller
T:Charles Coller, 1920
T:Public Domain Courtesy of the Cyber Hymnal™
T:Public Domain Courtesy of the Cyber Hymnal™
C:Charles Coller
Z:Public Domain
Z:Courtesy of the Cyber Hymnal™
%%score ( 1 2 ) ( 3 4 )
L:1/8
Q:1/4=115
M:4/4
K:F
V:1 treble 
V:2 treble 
V:3 bass 
V:4 bass 
V:1
 [CA]2 [CF]2 [B,C]2 (DE) | [A,F]2 [DF]2 [CF]4 | [=B,G]2 [B,G][B,G] [_B,G] [CA]2 [DB] | [CA]8 | %4
w: 1.~Joy- ful news to *|all man- kind,|Je- sus is might- y to|save;|
w: 2.~Though as scar- let *|be the stains,|Je- sus is might- y to|save;|
w: 3.~Fear- ful soul, dis- *|card thy fears,|Je- sus is might- y to|save;|
w: 4.~Since His blood for *|thee was shed,|Je- sus is might- y to|save;|
 [CA]2 [CF]2 [B,D]2 (EF) | [CG]2 [=B,G]2 G4 | [=B,F]2 [B,F][B,E] [B,D] [B,E]2 [B,F] | [CE]8 | %8
w: All who seek shall *|sure- ly find|Je- sus is might- y to|save.|
w: Though as steel the *|bind- ing chains,|Je- sus is might- y to|save.|
w: Seek- er, haste to *|dry thy tears,|Je- sus is might- y to|save.|
w: Since He lives who *|once was dead,|Je- sus is might- y to|save.|
 [B,B]3 [B,E] [B,C]2 (DC) | [CF]3 [CG] [CA]4 | [CA]3 [C^F] [CD]2 (_ED) | [DG]3 [DA] [DB]4 | %12
w: Sin- ners may re- *|lin- quish wrong,|Fal- tering hearts may *|now be strong;|
w: His the glor- ious *|sa- crif- ice;|His the blood which *|paid the price;|
w: With as- sur- ance *|seek His face,|Doubt no more His *|love and grace,|
w: While in con- flict *|we en- gage,|When the storms a- *|round shall rage,|
 [Cc]2 [CA]2 [B,B]2 [CG]2 | [A,A]2 [=B,F]2 [Cc]4 | [=B,G]2 [B,G][B,G] [D=B] [CA]2 [B,G] | c8 || %16
w: Sound the tid- ings|right a- long,|Je- sus is might- y, is|might-|
w: His the love doth|now e- ntice;|Je- sus is might- y, is|might-|
w: Give Him now His|right- ful place,|Je- sus is might- y, is|might-|
w: All our earth- ly|pil- grim- age,|Je- sus is might- y, is|might-|
"^Refrain" [B,C]4 [B,D]2 [B,C]2 | [B,C] [B,E]2 [CG] [EB]4 | [B,C]4 [B,D]2 [B,C]2 | %19
w: y to save.|||
w: y to save.|Je- sus is might-|y to save,|
w: y to save.|||
w: y to save.|||
 [A,C] [CF]2 [CA] [Cc]4 | [DB]3 [_EA] [DG][C^F] [DG]2 | [CA]3 [_DG] [CF][B,E] F2 | %22
w: |||
w: Je- sus is might-|y to save; From the|ut- ter- most, to the|
w: |||
w: |||
 [CFc]2 [DFc]4 [B,E]2 | [A,F]8 |] %24
w: ||
w: ut- ter- most,|Might-|
w: ||
w: ||
V:2
 x6 B,2 | x8 | x8 | x8 | x6 C2 | x4 (C2 A,2) | x8 | x8 | x6 G,2 | x8 | x6 A,2 | x8 | x8 | x8 | x8 | %15
 C D2 ^D E4 || x8 | x8 | x8 | x8 | x8 | x6 (C=B,) | x8 | x8 |] %24
V:3
 [F,,F,]2 [A,,F,]2 [G,,E,]2 (F,G,) | [D,F,]2 [B,,F,]2 [A,,F,]2 [D,A,]2 | %2
 [G,,F,]2 [G,,F,][G,,F,] [C,E,] [C,E,]2 [C,E,] | F,8 | %4
 [F,,F,]2 [A,,F,]2 [B,,F,]2 ([B,,G,][A,,F,]) | [G,,E,]2 [G,,F,]2 (E,2 E,2) | %6
 [G,,D,]2 [G,,D,][G,,E,] [G,,F,] [G,,G,]2 [D,G,] | G,8 | [C,E,]3 [C,G,] [G,,E,]2 [B,,E,]2 | %9
 [A,,F,]3 [G,,E,] ([F,,F,]2 [_E,G,]2) | [D,^F,]3 [D,A,] [A,,F,]2 [C,F,]2 | [B,,G,]3 [A,,^F,] G,4 | %12
 [E,G,]2 [F,A,]2 [D,F,]2 [E,G,]2 | [^C,E,]2 [D,F,]2 ([E,G,]2 [_E,A,]2) | %14
 [D,F,]2 [D,F,][D,F,] [G,,F,] [G,,F,]2 [D,F,] | [E,G,] [F,_A,]2 [^F,=A,] [G,B,]4 || %16
 E,4 [G,,F,]2 [C,E,]2 | [G,,E,] [C,G,]2 [E,B,] [C,G,]4 | E,4 [G,,F,]2 [C,E,]2 | %19
 [F,,F,] [A,,F,]2 [C,F,] [F,A,]2 [_E,G,]2 | [D,^F,]3 [C,F,] [B,,G,][A,,A,] [B,,G,]2 | %21
 [C,E,]3 [B,,E,] [A,,F,][G,,G,] ([A,,F,][D,G,]) | [C,A,]2 [C,_A,]4 [C,G,]2 | [F,,C,F,]8 |] %24
V:4
 x6 C,2 | x8 | x8 | (A,,2 C,2 A,,2 C,2) | x8 | x4 G,,4 | x8 | (C,2 G,,2 C,4) | x8 | x8 | x8 | %11
 x4 (G,,2 =F,2) | x8 | x8 | x8 | C,8 || G,,2 B,,2 x4 | x8 | G,,2 C,2 x4 | x8 | x8 | x8 | x8 | x8 |] %24

